X:1
T:Auld Lang Syne
M:4/4
K:D
L: 1/4
Q: 1/4 = 85
A|"Dmaj"d3/2 d/2 d f|"Amaj"e3/2 d/2"F#7/A"ef/2 e/2| "Bm"d d "Bm/A"f a |"Gmaj"b3 b|
"Dmaj"a3/2 f/2 f d| "Amaj"e3/2 d/2 "F#maj/A"ef/2e/2| "Gmaj"d3/2 B/2"A7"B A |"Dmaj"d4| 
```